img/benefit-icons/img9.svg

<svg width="35" height="35" viewBox="0 0 35 35" fill="none" xmlns="http://www.w3.org/2000/svg">
<g clip-path="url(#clip0_198_18590)">
<path d="M10.5908 9.43312C9.23665 10.6043 8.17762 12.0782 7.49967 13.7353C7.44301 13.8745 7.44399 14.0305 7.50238 14.1691C7.56078 14.3076 7.67181 14.4172 7.81105 14.4739C7.9503 14.5306 8.10634 14.5296 8.24487 14.4712C8.38339 14.4128 8.49304 14.3018 8.5497 14.1625C9.15971 12.671 10.113 11.3444 11.332 10.2905C11.4457 10.1922 11.5157 10.0528 11.5266 9.90288C11.5375 9.75298 11.4884 9.6049 11.3901 9.49121C11.2918 9.37751 11.1524 9.30752 11.0025 9.29663C10.8526 9.28573 10.7045 9.33483 10.5908 9.43312Z" fill="#0383FD"/>
<path d="M3.26666 20.2667H3.83333V33.8667C3.83333 34.1672 3.95274 34.4555 4.16528 34.6681C4.37782 34.8806 4.66609 35 4.96666 35H6.1C6.40058 35 6.68884 34.8806 6.90139 34.6681C7.11393 34.4555 7.23333 34.1672 7.23333 33.8667V26.296C8.44604 27.8761 9.9944 29.1672 11.7667 30.0762V33.8667C11.7667 34.1672 11.8861 34.4555 12.0986 34.6681C12.3112 34.8806 12.5994 35 12.9 35H14.0333C14.3339 35 14.6222 34.8806 14.8347 34.6681C15.0473 34.4555 15.1667 34.1672 15.1667 33.8667V31.2963C17.0339 31.7012 18.9661 31.7012 20.8333 31.2963V33.8667C20.8333 34.1672 20.9527 34.4555 21.1653 34.6681C21.3778 34.8806 21.6661 35 21.9667 35H23.1C23.4006 35 23.6888 34.8806 23.9014 34.6681C24.1139 34.4555 24.2333 34.1672 24.2333 33.8667V30.0762C26.0056 29.1672 27.554 27.8761 28.7667 26.296V33.8667C28.7667 34.1672 28.8861 34.4555 29.0986 34.6681C29.3112 34.8806 29.5994 35 29.9 35H31.0333C31.3339 35 31.6222 34.8806 31.8347 34.6681C32.0473 34.4555 32.1667 34.1672 32.1667 33.8667V20.2667H32.7333C33.0339 20.2667 33.3222 20.1473 33.5347 19.9347C33.7473 19.7222 33.8667 19.4339 33.8667 19.1333V16.8667C33.8667 16.5661 33.7473 16.2778 33.5347 16.0653C33.3222 15.8527 33.0339 15.7333 32.7333 15.7333H31.3943C30.9707 13.2472 29.8649 10.9276 28.2003 9.03305C26.5357 7.13851 24.3776 5.74349 21.9667 5.0035V2.7C21.9667 2.24913 21.7876 1.81673 21.4687 1.49792C21.1499 1.17911 20.7175 1 20.2667 1H15.7333C15.2825 1 14.8501 1.17911 14.5313 1.49792C14.2124 1.81673 14.0333 2.24913 14.0333 2.7V5.0035C11.6224 5.74349 9.46432 7.13851 7.7997 9.03305C6.13509 10.9276 5.02933 13.2472 4.6057 15.7333H3.26666C2.96609 15.7333 2.67782 15.8527 2.46528 16.0653C2.25274 16.2778 2.13333 16.5661 2.13333 16.8667V19.1333C2.13333 19.4339 2.25274 19.7222 2.46528 19.9347C2.67782 20.1473 2.96609 20.2667 3.26666 20.2667ZM4.96666 33.8667V20.2667H6.1V33.8667H4.96666ZM9.5 21.2413L8.28167 20.2667H10.7183L9.5 21.2413ZM11.7667 20.8787V23.0547L10.4067 21.9667L11.7667 20.8787ZM8.59333 21.9667L7.23333 23.0547V20.8787L8.59333 21.9667ZM7.3342 24.4249L9.5 22.692L11.7667 24.5053V28.7944C9.93974 27.741 8.41361 26.2365 7.3342 24.4249ZM12.9 33.8667V20.2667H14.0333V33.8667H12.9ZM18 21.2867L16.47 20.2667H19.53L18 21.2867ZM20.8333 20.7597V23.1759L19.02 21.9667L20.8333 20.7597ZM16.98 21.9667L15.1667 23.1748V20.7585L16.98 21.9667ZM15.1667 30.1318V24.5365L18 22.6467L20.8333 24.5354V30.1306C18.9695 30.5656 17.0306 30.566 15.1667 30.1318ZM21.9667 33.8667V20.2667H23.1V33.8667H21.9667ZM28.7667 23.0547L27.4067 21.9667L28.7667 20.8787V23.0547ZM26.5 21.2413L25.2817 20.2667H27.7183L26.5 21.2413ZM25.5933 21.9667L24.2333 23.0547V20.8787L25.5933 21.9667ZM24.2333 28.7944V24.5053L26.5 22.692L28.6658 24.4249C27.5864 26.2365 26.0603 27.741 24.2333 28.7944ZM31.0333 33.8667H29.9V20.2667H31.0333V33.8667ZM15.1667 2.7C15.1667 2.54971 15.2264 2.40558 15.3326 2.29931C15.4389 2.19304 15.583 2.13333 15.7333 2.13333H20.2667C20.417 2.13333 20.5611 2.19304 20.6674 2.29931C20.7736 2.40558 20.8333 2.54971 20.8333 2.7V4.71053C18.9671 4.29678 17.0329 4.29678 15.1667 4.71053V2.7ZM18 5.53333C20.9099 5.53956 23.7261 6.56233 25.9618 8.42482C28.1975 10.2873 29.7122 12.8725 30.244 15.7333H5.75603C6.28779 12.8725 7.80247 10.2873 10.0382 8.42482C12.2739 6.56233 15.0901 5.53956 18 5.53333ZM3.26666 16.8667H32.7333V19.1333H3.26666V16.8667Z" fill="#0383FD"/>
</g>
<defs>
<clipPath id="clip0_198_18590">
<rect width="34" height="34" fill="white" transform="translate(1 1)"/>
</clipPath>
</defs>
</svg>

<svg width="35" height="35" fill="none" xmlns="http://www.w3.org/2000/svg"><g clip-path="url(#clip0_198_18590)" fill="#0383FD"><path d="M10.59 9.433a11.39 11.39 0 00-3.09 4.302.567.567 0 101.05.428 10.246 10.246 0 012.782-3.873.567.567 0 10-.741-.857z"/><path d="M3.267 20.267h.566v13.6A1.134 1.134 0 004.967 35H6.1a1.133 1.133 0 001.133-1.133v-7.571a13.455 13.455 0 004.534 3.78v3.79A1.134 1.134 0 0012.9 35h1.133a1.133 1.133 0 001.134-1.133v-2.57c1.867.404 3.8.404 5.666 0v2.57A1.133 1.133 0 0021.967 35H23.1a1.134 1.134 0 001.133-1.133v-3.79c1.773-.91 3.321-2.2 4.534-3.781v7.57A1.134 1.134 0 0029.9 35h1.133a1.133 1.133 0 001.134-1.133v-13.6h.566a1.133 1.133 0 001.134-1.134v-2.266a1.133 1.133 0 00-1.134-1.134h-1.339a13.616 13.616 0 00-9.427-10.73V2.7a1.7 1.7 0 00-1.7-1.7h-4.534a1.7 1.7 0 00-1.7 1.7v2.303a13.617 13.617 0 00-9.427 10.73h-1.34a1.133 1.133 0 00-1.133 1.134v2.266a1.133 1.133 0 001.134 1.134zm1.7 13.6v-13.6H6.1v13.6H4.967zM9.5 21.24l-1.218-.974h2.436L9.5 21.24zm2.267-.362v2.176l-1.36-1.088 1.36-1.088zm-3.174 1.088l-1.36 1.088v-2.176l1.36 1.088zm-1.259 2.458L9.5 22.692l2.267 1.813v4.29a12.328 12.328 0 01-4.433-4.37zm5.566 9.442v-13.6h1.133v13.6H12.9zm5.1-12.58l-1.53-1.02h3.06L18 21.287zm2.833-.527v2.416l-1.813-1.21 1.813-1.206zm-3.853 1.207l-1.813 1.208v-2.416l1.813 1.208zm-1.813 8.165v-5.596L18 22.646l2.833 1.89v5.595a12.477 12.477 0 01-5.666 0zm6.8 3.735v-13.6H23.1v13.6h-1.133zm6.8-10.812l-1.36-1.088 1.36-1.088v2.176zM26.5 21.24l-1.218-.974h2.436l-1.218.974zm-.907.726l-1.36 1.088v-2.176l1.36 1.088zm-1.36 6.827v-4.289l2.267-1.813 2.166 1.733a12.327 12.327 0 01-4.433 4.37zm6.8 5.073H29.9v-13.6h1.133v13.6zM15.167 2.7a.567.567 0 01.566-.567h4.534a.567.567 0 01.566.567v2.01a13.09 13.09 0 00-5.666 0V2.7zM18 5.533a12.48 12.48 0 0112.244 10.2H5.756A12.48 12.48 0 0118 5.533zM3.267 16.867h29.466v2.266H3.267v-2.266z"/></g><defs><clipPath id="clip0_198_18590"><path fill="#fff" transform="translate(1 1)" d="M0 0h34v34H0z"/></clipPath></defs></svg>
